usr/share/icons/biglinux-icons-material-dark/22/actions/text-field.svg

<svg xmlns="http://www.w3.org/2000/svg" viewBox="0 0 22 22">
<defs id="defs3051">
<style id="current-color-scheme" type="text/css">
.ColorScheme-Text{color:#dedede}
</style>
</defs>
<path d="M3 3v1h2v14H3v1h5v-1H6V4h2V3zm5 12v2h11v-2h-1v1H9v-1z" class="ColorScheme-Text" style="fill:currentColor;fill-opacity:1;stroke:none"/>
</svg>

<svg xmlns="http://www.w3.org/2000/svg" viewBox="0 0 22 22">
  <defs id="defs3051">
    <style type="text/css" id="current-color-scheme">
      .ColorScheme-Text {
        color:#dedede;
      }
      </style>
  </defs>
 <path 
     style="fill:currentColor;fill-opacity:1;stroke:none" 
     d="M 3 3 L 3 4 L 5 4 L 5 18 L 3 18 L 3 19 L 8 19 L 8 18 L 6 18 L 6 4 L 8 4 L 8 3 L 3 3 z M 8 15 L 8 17 L 9 17 L 18 17 L 19 17 L 19 16 L 19 15 L 18 15 L 18 16 L 9 16 L 9 15 L 8 15 z "
	 class="ColorScheme-Text"
     />
</svg>
